Sources/FrostedUI/Resources/Icons.xcassets/strikethrough32.imageset/strikethrough-32.svg

<svg width="32" height="32" viewBox="0 0 32 32" fill="none" xmlns="http://www.w3.org/2000/svg" data-fui-icon="true">
  <path
    d="M23.458 18.25C23.5431 18.25 23.6246 18.2859 23.68 18.3506C23.8654 18.5671 24.0367 18.8002 24.1885 19.0537C24.7192 19.9403 25.0029 21.0154 25.0029 22.3105C25.0025 25.5234 22.0129 29.37 16.0254 29.3701C12.9182 29.37 10.7989 28.3778 9.38379 27.1045C7.9845 25.8452 7.32406 24.3577 7.03418 23.4297C6.91095 23.0345 7.13139 22.6139 7.52637 22.4902C7.92164 22.3668 8.34222 22.5872 8.46582 22.9824C8.70366 23.7439 9.24801 24.9643 10.3867 25.9893C11.5104 27.0004 13.2665 27.87 16.0254 27.8701C21.3145 27.87 23.5025 24.5707 23.5029 22.3105C23.5029 21.24 23.2705 20.441 22.9014 19.8242C22.5312 19.206 21.9935 18.7212 21.3066 18.3262C21.2705 18.3054 21.2845 18.25 21.3262 18.25H23.458ZM16.0254 2.62891C22.2811 2.62901 24.5788 6.4828 24.9873 8.48828C25.0696 8.89394 24.8079 9.29036 24.4023 9.37305C23.9968 9.45536 23.6004 9.1935 23.5176 8.78809C23.2378 7.414 21.5018 4.12999 16.0254 4.12988C10.7353 4.13003 8.54311 7.43089 8.54297 9.69043C8.5431 10.7607 8.77447 11.5601 9.14355 12.1768C9.51368 12.7947 10.0517 13.2789 10.7383 13.6738C12.128 14.4729 14.0103 14.8501 16.0667 15.2446C16.0853 15.2482 16.1043 15.25 16.1232 15.25H31.25C31.664 15.2501 31.9998 15.586 32 16C31.9998 16.388 31.705 16.7075 31.3271 16.7461L31.25 16.75H0.75C0.336005 16.7499 0.000263695 16.4139 0 16C0.000248337 15.586 0.335996 15.2501 0.75 15.25H9.92231C10.0666 15.25 10.1153 15.0465 9.99023 14.9746C9.1345 14.4824 8.38628 13.832 7.85645 12.9473C7.3258 12.0608 7.0431 10.9854 7.04297 9.69043C7.0431 6.47689 10.0382 2.62906 16.0254 2.62891Z"
    fill="currentColor"
  />
</svg>

<svg xmlns="http://www.w3.org/2000/svg" width="32" height="32" fill="none" data-fui-icon="true" viewBox="0 0 32 32"><path fill="currentColor" d="M23.458 18.25c.085 0 .167.036.222.1q.28.324.509.704c.53.886.814 1.961.814 3.257 0 3.212-2.99 7.059-8.978 7.06-3.107-.001-5.226-.993-6.641-2.266a8.34 8.34 0 0 1-2.35-3.675.75.75 0 0 1 1.432-.448 6.84 6.84 0 0 0 1.92 3.007c1.124 1.011 2.88 1.881 5.64 1.881 5.288 0 7.477-3.3 7.477-5.56 0-1.07-.233-1.869-.602-2.486-.37-.618-.907-1.103-1.594-1.498-.037-.02-.022-.076.02-.076zM16.025 2.629c6.256 0 8.554 3.854 8.962 5.86a.75.75 0 0 1-1.47.3c-.28-1.375-2.015-4.659-7.492-4.66-5.29.001-7.482 3.302-7.482 5.561 0 1.07.231 1.87.6 2.487.37.618.909 1.102 1.595 1.497 1.39.799 3.272 1.176 5.329 1.57a.3.3 0 0 0 .056.006H31.25a.75.75 0 0 1 .077 1.496l-.077.004H.75a.75.75 0 0 1 0-1.5h9.172c.145 0 .193-.203.068-.275-.856-.493-1.604-1.143-2.134-2.028-.53-.886-.813-1.962-.813-3.257 0-3.213 2.995-7.06 8.982-7.061"/></svg>
